img/icons/consumer-graph/coupon-icon.svg

<?xml version="1.0" encoding="UTF-8"?>
<svg width="36px" height="25px" viewBox="0 0 36 25" version="1.1" xmlns="http://www.w3.org/2000/svg" xmlns:xlink="http://www.w3.org/1999/xlink">
    <!-- Generator: Sketch 50.2 (55047) - http://www.bohemiancoding.com/sketch -->
    <title>coupon</title>
    <desc>Created with Sketch.</desc>
    <defs>
        <path d="M0,0.201486392 L36,0.201486392 L36,24.5454545 L0,24.5454545 L0,0.201486392 Z" id="path-1"></path>
        <mask id="mask-2" maskContentUnits="userSpaceOnUse" maskUnits="objectBoundingBox" x="0" y="0" width="36" height="24.3439682" fill="white">
            <use xlink:href="#path-1"></use>
        </mask>
    </defs>
    <g id="Page-1" stroke="none" stroke-width="1" fill="none" fill-rule="evenodd">
        <g id="Consumer-Graph" transform="translate(-1256.000000, -1532.000000)" stroke="#FF4141">
            <g transform="translate(0.000000, 998.000000)" id="text">
                <g transform="translate(147.000000, 131.000000)">
                    <g id="06" transform="translate(771.000000, 403.000000)">
                        <g id="coupon" transform="translate(338.000000, 0.310268)">
                            <path d="M18.4100914,11.8459013 L18.9856214,6.7140925 C19.657073,6.85797499 20.232603,7.1937008 20.7122113,7.43350495 L21.1918196,6.61817084 C20.6162896,6.28244503 19.8968772,5.89875839 19.0815431,5.7548759 L19.2733864,4.02828601 L18.3141698,3.93236435 L18.1223265,5.65895424 C18.1223265,5.65895424 18.0743656,5.65895424 18.0743656,5.65895424 C16.2518541,5.65895424 14.5252642,7.1937008 14.5252642,8.82436903 C14.5252642,10.3111548 15.43652,11.5101755 17.3549532,12.4214313 L16.7314624,18.0328484 C15.9161283,17.8889659 15.3405983,17.5532401 14.86099,17.2654752 L14.7650683,17.2175143 L14.28546,18.0328484 L14.3813817,18.0808093 C14.9569117,18.4165351 15.6283633,18.8002217 16.6355407,18.992065 L16.4436974,20.7186549 L17.402914,20.8145766 L17.5947573,19.0879867 C17.5947573,19.0879867 17.6427182,19.0879867 17.6427182,19.0879867 C19.657073,19.0879867 21.7193887,17.7930443 21.7193887,15.6827678 C21.7193887,13.9561779 20.8560938,12.9490004 18.4100914,11.8459013 Z M15.5324416,8.82436903 C15.5324416,7.76923077 16.7794232,6.66613167 18.0743656,6.61817084 L17.5467965,11.4142539 C16.1559324,10.6948414 15.5324416,9.83154647 15.5324416,8.82436903 Z M17.690679,18.1287701 L18.3141698,12.8530788 C20.3764855,13.8122954 20.7601721,14.5796687 20.7601721,15.6827678 C20.7601721,17.3613968 18.9856214,18.0808093 17.690679,18.1287701 Z" id="Shape" stroke-width="0.5" fill="#FF4141" fill-rule="nonzero"></path>
                            <use id="Rectangle-4" mask="url(#mask-2)" stroke-width="3" stroke-dasharray="5,2" xlink:href="#path-1"></use>
                        </g>
                    </g>
                </g>
            </g>
        </g>
    </g>
</svg>

<svg width="36" height="25" xmlns="http://www.w3.org/2000/svg" xmlns:xlink="http://www.w3.org/1999/xlink"><defs><path d="M0 .201h36v24.344H0V.201z" id="a"/><mask id="b" maskContentUnits="userSpaceOnUse" maskUnits="objectBoundingBox" x="0" y="0" width="36" height="24.344" fill="#fff"><use xlink:href="#a"/></mask></defs><g transform="translate(0 .31)" stroke="#FF4141" fill="none" fill-rule="evenodd"><path d="M18.41 11.846l.576-5.132c.671.144 1.247.48 1.726.72l.48-.816c-.576-.336-1.295-.72-2.11-.863l.191-1.727-.959-.096-.192 1.727h-.048c-1.822 0-3.549 1.535-3.549 3.165 0 1.487.912 2.686 2.83 3.597l-.624 5.612c-.815-.144-1.39-.48-1.87-.768l-.096-.047-.48.815.096.048c.576.336 1.247.72 2.255.911l-.192 1.727.959.096.192-1.727h.048c2.014 0 4.076-1.295 4.076-3.405 0-1.727-.863-2.734-3.309-3.837zm-2.878-3.022c0-1.055 1.247-2.158 2.542-2.206l-.527 4.796c-1.391-.72-2.015-1.582-2.015-2.59zm2.159 9.305l.623-5.276c2.062.96 2.446 1.727 2.446 2.83 0 1.678-1.774 2.398-3.07 2.446z" stroke-width=".5" fill="#FF4141" fill-rule="nonzero"/><use mask="url(#b)" stroke-width="3" stroke-dasharray="5,2" xlink:href="#a"/></g></svg>
